svg/plus.svg

<svg width="284" height="284" viewBox="0 0 284 284" xmlns="http://www.w3.org/2000/svg">
    <path d="M147.47 137.473L147.472 73a5 5 0 0 0-10-.002v64.475l-64.473.002a4.978 4.978 0 0 0-3.535 1.463A4.98 4.98 0 0 0 68 142.473a4.997 4.997 0 0 0 5 5h64.472v64.473a5 5 0 0 0 9.998.002l.002-64.475h64.474a4.989 4.989 0 0 0 3.535-1.465 5 5 0 0 0-3.536-8.535H147.47z" fill="#1A1918" fill-rule="evenodd"/>
</svg>

<svg width="284" height="284" viewBox="0 0 284 284" fill="none" xmlns="http://www.w3.org/2000/svg">
<path fill-rule="evenodd" clip-rule="evenodd" d="M147.47 137.473L147.472 73C147.472 70.239 145.234 67.998 142.472 68C139.713 67.998 137.472 70.239 137.472 72.998V137.473L72.999 137.475C71.62 137.473 70.368 138.034 69.464 138.938C68.559 139.842 68 141.092 68 142.473C68 145.237 70.238 147.475 73 147.473H137.472V211.946C137.472 214.707 139.711 216.948 142.472 216.946C145.232 216.948 147.472 214.707 147.47 211.948L147.472 147.473H211.946C213.325 147.473 214.577 146.912 215.481 146.008C216.385 145.104 216.945 143.854 216.945 142.473C216.945 139.711 214.707 137.473 211.945 137.473H147.47Z" fill="#1A1919"/>
</svg>
